assets/svg/Load.svg

<svg width="24" height="24" viewBox="0 0 24 24" fill="none" xmlns="http://www.w3.org/2000/svg">
<mask id="mask0_3_101" style="mask-type:alpha" maskUnits="userSpaceOnUse" x="0" y="0" width="24" height="24">
<rect width="24" height="24" fill="#D9D9D9"/>
</mask>
<g mask="url(#mask0_3_101)">
<path d="M4 21C3.16667 21 2.45833 20.7083 1.875 20.125C1.29167 19.5417 1 18.8333 1 18C1 17.5667 1.08333 17.1543 1.25 16.763C1.41667 16.371 1.66667 16.0333 2 15.75V11H4V5H12L16.7 16.075C16.8 16.3083 16.875 16.5417 16.925 16.775C16.975 17.0083 17 17.25 17 17.5C17 18.4667 16.6583 19.2917 15.975 19.975C15.2917 20.6583 14.4667 21 13.5 21C12.8167 21 12.1877 20.8207 11.613 20.462C11.0377 20.104 10.6083 19.6167 10.325 19H6.825C6.60833 19.6 6.24167 20.0833 5.725 20.45C5.20833 20.8167 4.63333 21 4 21ZM18 20V4H20V18H23V20H18ZM4 19C4.28333 19 4.521 18.904 4.713 18.712C4.90433 18.5207 5 18.2833 5 18C5 17.7167 4.90433 17.4793 4.713 17.288C4.521 17.096 4.28333 17 4 17C3.71667 17 3.47933 17.096 3.288 17.288C3.096 17.4793 3 17.7167 3 18C3 18.2833 3.096 18.5207 3.288 18.712C3.47933 18.904 3.71667 19 4 19ZM13.5 19C13.9167 19 14.2707 18.854 14.562 18.562C14.854 18.2707 15 17.9167 15 17.5C15 17.0833 14.854 16.7293 14.562 16.438C14.2707 16.146 13.9167 16 13.5 16C13.0833 16 12.7293 16.146 12.438 16.438C12.146 16.7293 12 17.0833 12 17.5C12 17.9167 12.146 18.2707 12.438 18.562C12.7293 18.854 13.0833 19 13.5 19ZM6.825 17H10.025C10.0583 16.8167 10.096 16.646 10.138 16.488C10.1793 16.3293 10.2417 16.1667 10.325 16H8.075L5.15 13H4V15C4.63333 15 5.20833 15.1833 5.725 15.55C6.24167 15.9167 6.60833 16.4 6.825 17ZM8.925 14H13.65L10.675 7H6V11L8.925 14ZM8.075 16L7.613 15.525C7.30433 15.2083 6.971 14.8623 6.613 14.487C6.25433 14.1123 5.921 13.7707 5.613 13.462L5.15 13L8.075 16Z" fill="#081B31"/>
</g>
</svg>

<svg width="24" height="24" fill="none" xmlns="http://www.w3.org/2000/svg">
    <mask id="a" style="mask-type:alpha" maskUnits="userSpaceOnUse" x="0" y="0" width="24" height="24">
        <path fill="#D9D9D9" d="M0 0h24v24H0z"/>
    </mask>
    <g mask="url(#a)">
        <path d="M4 21a2.893 2.893 0 0 1-2.125-.875A2.893 2.893 0 0 1 1 18c0-.433.083-.846.25-1.237.167-.392.417-.73.75-1.013V11h2V5h8l4.7 11.075c.1.233.175.467.225.7.05.233.075.475.075.725 0 .967-.342 1.792-1.025 2.475A3.372 3.372 0 0 1 13.5 21c-.683 0-1.312-.18-1.887-.538A3.317 3.317 0 0 1 10.325 19h-3.5a2.977 2.977 0 0 1-1.1 1.45A2.912 2.912 0 0 1 4 21Zm14-1V4h2v14h3v2h-5ZM4 19a.968.968 0 0 0 .713-.288A.967.967 0 0 0 5 18a.967.967 0 0 0-.287-.712A.968.968 0 0 0 4 17a.965.965 0 0 0-.712.288A.965.965 0 0 0 3 18c0 .283.096.52.288.712A.965.965 0 0 0 4 19Zm9.5 0c.417 0 .77-.146 1.062-.438.292-.291.438-.645.438-1.062 0-.417-.146-.77-.438-1.062A1.444 1.444 0 0 0 13.5 16c-.417 0-.77.146-1.062.438A1.444 1.444 0 0 0 12 17.5c0 .417.146.77.438 1.062.291.292.645.438 1.062.438Zm-6.675-2h3.2c.033-.183.071-.354.113-.512.041-.159.104-.321.187-.488h-2.25L5.15 13H4v2c.633 0 1.208.183 1.725.55.517.367.883.85 1.1 1.45Zm2.1-3h4.725l-2.975-7H6v4l2.925 3Zm-.85 2-.462-.475c-.309-.317-.642-.663-1-1.038a69.474 69.474 0 0 0-1-1.025L5.15 13l2.925 3Z" fill="#081B31"/>
    </g>
</svg>
